web/logos/clicks.svg

<svg width="2048" height="2048" fill="none" xmlns="http://www.w3.org/2000/svg"><g clip-path="url(#a)"><path d="m719.137 217.346-161.379 58.115c-178.255 64.192-270.72 260.734-206.528 438.988l319.633 887.581c96.289 267.39 391.097 406.08 658.487 309.8L719.137 217.346Z" fill="#C4C4C4"/><path d="M1319.51 365.758c-64.2-178.254-260.74-270.72-438.993-206.528l-161.379 58.116L1329.35 1911.83c267.38-96.29 406.08-391.11 309.79-658.49l-319.63-887.582Z" fill="#8D8D8D"/><g filter="url(#b)"><rect width="198.968" height="497.42" rx="25.729" transform="scale(-1 1) rotate(19.805 -1693.819 -2368.93)" fill="#424242"/></g></g><defs><clipPath id="a"><path fill="#fff" d="M0 0h2048v2048H0z"/></clipPath><filter id="b" x="722.805" y="440.966" width="348.218" height="534.758" filterUnits="userSpaceOnUse" color-interpolation-filters="sRGB"><feFlood flood-opacity="0" result="BackgroundImageFix"/><feBlend in="SourceGraphic" in2="BackgroundImageFix" result="shape"/><feColorMatrix in="SourceAlpha" values="0 0 0 0 0 0 0 0 0 0 0 0 0 0 0 0 0 0 127 0" result="hardAlpha"/><feOffset dx="6.861" dy="13.722"/><feGaussianBlur stdDeviation="13.722"/><feComposite in2="hardAlpha" operator="arithmetic" k2="-1" k3="1"/><feColorMatrix values="0 0 0 0 0.816667 0 0 0 0 0.816667 0 0 0 0 0.816667 0 0 0 0.2 0"/><feBlend in2="shape" result="effect1_innerShadow_4218_7815"/></filter></defs></svg>

<svg width="2048" height="2048" viewBox="0 0 2048 2048" fill="none" xmlns="http://www.w3.org/2000/svg">
<g clip-path="url(#clip0_4218_7815)">
<path d="M719.137 217.346L557.758 275.461C379.503 339.653 287.038 536.195 351.23 714.449L670.863 1602.03C767.152 1869.42 1061.96 2008.11 1329.35 1911.83V1911.83L719.137 217.346Z" fill="#C4C4C4"/>
<path d="M1319.51 365.758C1255.31 187.504 1058.77 95.0381 880.517 159.23L719.138 217.346L1329.35 1911.83V1911.83C1596.73 1815.54 1735.43 1520.72 1639.14 1253.34L1319.51 365.758Z" fill="#8D8D8D"/>
<g filter="url(#filter0_i_4218_7815)">
<rect width="198.968" height="497.42" rx="25.7286" transform="matrix(-0.940853 0.338816 0.338816 0.940853 902.816 433.777)" fill="#424242"/>
</g>
</g>
<defs>
<filter id="filter0_i_4218_7815" x="722.805" y="440.966" width="348.218" height="534.758" filterUnits="userSpaceOnUse" color-interpolation-filters="sRGB">
<feFlood flood-opacity="0" result="BackgroundImageFix"/>
<feBlend mode="normal" in="SourceGraphic" in2="BackgroundImageFix" result="shape"/>
<feColorMatrix in="SourceAlpha" type="matrix" values="0 0 0 0 0 0 0 0 0 0 0 0 0 0 0 0 0 0 127 0" result="hardAlpha"/>
<feOffset dx="6.86097" dy="13.7219"/>
<feGaussianBlur stdDeviation="13.7219"/>
<feComposite in2="hardAlpha" operator="arithmetic" k2="-1" k3="1"/>
<feColorMatrix type="matrix" values="0 0 0 0 0.816667 0 0 0 0 0.816667 0 0 0 0 0.816667 0 0 0 0.2 0"/>
<feBlend mode="normal" in2="shape" result="effect1_innerShadow_4218_7815"/>
</filter>
<clipPath id="clip0_4218_7815">
<rect width="2048" height="2048" fill="white"/>
</clipPath>
</defs>
</svg>
